media/icon/email.svg

<?xml version="1.0" encoding="UTF-8"?>
<svg width="32px" height="32px" viewBox="0 0 32 32" version="1.1" xmlns="http://www.w3.org/2000/svg" xmlns:xlink="http://www.w3.org/1999/xlink">
    <!-- Generator: Sketch 42 (36781) - http://www.bohemiancoding.com/sketch -->
    <title>icon/entypo/email</title>
    <desc>Created with Sketch.</desc>
    <defs></defs>
    <g id="Symbols" stroke="none" stroke-width="1" fill="none" fill-rule="evenodd">
        <g id="icon/entypo/email">
            <g id="icon-email">
                <ellipse id="Oval-3" fill="#FF4476" cx="16" cy="16" rx="16" ry="16"></ellipse>
                <path d="M16.8624096,19.3690154 C16.8624096,19.3690154 23.9214096,14.2750154 23.1384096,8.44501536 C23.1214096,8.31801536 23.0794096,8.23201536 23.0264096,8.17701536 C22.9724096,8.12201536 22.8894096,8.07901536 22.7634096,8.06201536 C17.0664096,7.26101536 12.0894096,14.4840154 12.0894096,14.4840154 C7.77140964,13.9670154 8.08540964,14.8280154 6.11540964,19.5600154 C5.73840964,20.4620154 6.34940964,20.7730154 7.01940964,20.5190154 C7.68940964,20.2670154 9.16740964,19.7080154 9.16740964,19.7080154 L11.7574096,22.3560154 C11.7574096,22.3560154 11.2114096,23.8700154 10.9644096,24.5550154 C10.7164096,25.2410154 11.0194096,25.8660154 11.9024096,25.4810154 C16.5264096,23.4650154 17.3684096,23.7870154 16.8624096,19.3690154 Z M17.8714096,13.4530154 C17.2734096,12.8400154 17.2734096,11.8490154 17.8714096,11.2360154 C18.4694096,10.6250154 19.4384096,10.6250154 20.0374096,11.2360154 C20.6354096,11.8470154 20.6354096,12.8390154 20.0374096,13.4530154 C19.4384096,14.0640154 18.4684096,14.0640154 17.8714096,13.4530154 Z" id="Shape" fill="#FFFFFF"></path>
            </g>
        </g>
    </g>
</svg>

<svg width="32" height="32" viewBox="0 0 32 32" xmlns="http://www.w3.org/2000/svg"><title>icon/entypo/email</title><g fill="none" fill-rule="evenodd"><ellipse fill="#FF4476" cx="16" cy="16" rx="16" ry="16"/><path d="M16.862 19.369s7.06-5.094 6.276-10.924a.465.465 0 0 0-.112-.268.436.436 0 0 0-.263-.115c-5.697-.801-10.674 6.422-10.674 6.422-4.318-.517-4.004.344-5.974 5.076-.377.902.234 1.213.904.959l2.148-.811 2.59 2.648-.793 2.199c-.248.686.055 1.311.938.926 4.624-2.016 5.466-1.694 4.96-6.112zm1.01-5.916a1.594 1.594 0 0 1 0-2.217 1.509 1.509 0 0 1 2.165 0 1.594 1.594 0 0 1 0 2.217 1.509 1.509 0 0 1-2.166 0z" fill="#FFF"/></g></svg>
